X:4262
T:British Grenadiers' March
L:1/8
M:2/4
R:polka
K:G
D |: GD GA | Bc/2B/2 AB/2c/2 | dG B/2A/2G/2F/2 |1 G2 GD :|2 G2G ||
|: B/2c/2 | d>e dc | B>c dG | ee d/2c/2B/2A/2 | G2FD |
GF/2G/2 AG/2A/2 | BA/2B/2 cB/2c/2 | dG B/2A/2G/2F/2 | G2G :|

